src/actions/16/edit-select-same-object-type.svg

<svg width="16" height="16" version="1.1" viewBox="0 0 16 16" xmlns="http://www.w3.org/2000/svg">
 <g id="edit-select-all" transform="translate(-45 -707.36)">
  <path transform="translate(45 707.36)" d="m0 0v1h1v-1h-1zm2 0v1h1v-1h-1zm2 0v1h1v-1h-1zm2 0v1h1v-1h-1zm2 0v1h1v-1h-1zm2 0v1h1v-1h-1zm2 0v1h1v-1h-1zm2 0v1h1v-1h-1zm-14 2v1h1v-1h-1zm7.4395 0-1.5176 3.6094-3.9219 0.6582 2.8125 2.627-0.61328 4.1055 3.2559-1.9863 3.543 1.8789-0.80078-3.8535 2.8027-2.9453-3.75-0.39453-1.8105-3.6992zm6.5605 0v1h1v-1h-1zm-14 2v1h1v-1h-1zm14 0v1h1v-1h-1zm-14 2v1h1v-1h-1zm14 0v1h1v-1h-1zm-14 2v1h1v-1h-1zm14 0v1h1v-1h-1zm-14 2v1h1v-1h-1zm14 0v1h1v-1h-1zm-14 2v1h1v-1h-1zm14 0v1h1v-1h-1zm-14 2v1h1v-1h-1zm2 0v1h1v-1h-1zm2 0v1h1v-1h-1zm2 0v1h1v-1h-1zm2 0v1h1v-1h-1zm2 0v1h1v-1h-1zm2 0v1h1v-1h-1zm2 0v1h1v-1h-1z" fill="#363636"/>
 </g>
</svg>

<svg xmlns="http://www.w3.org/2000/svg" width="16" height="16">
    <path fill="#050505" fill-opacity=".7" d="M0 0v1h1V0H0zm2 0v1h1V0H2zm2 0v1h1V0H4zm2 0v1h1V0H6zm2 0v1h1V0H8zm2 0v1h1V0h-1zm2 0v1h1V0h-1zm2 0v1h1V0h-1zM0 2v1h1V2H0zm7.44 0L5.922 5.61 2 6.267l2.813 2.627L4.199 13l3.256-1.986 3.543 1.879-.8-3.854L13 6.094l-3.75-.395L7.44 2zM14 2v1h1V2h-1zM0 4v1h1V4H0zm14 0v1h1V4h-1zM0 6v1h1V6H0zm14 0v1h1V6h-1zM0 8v1h1V8H0zm14 0v1h1V8h-1zM0 10v1h1v-1H0zm14 0v1h1v-1h-1zM0 12v1h1v-1H0zm14 0v1h1v-1h-1zM0 14v1h1v-1H0zm2 0v1h1v-1H2zm2 0v1h1v-1H4zm2 0v1h1v-1H6zm2 0v1h1v-1H8zm2 0v1h1v-1h-1zm2 0v1h1v-1h-1zm2 0v1h1v-1h-1z"/>
</svg>
